X:1
T:BWV 244.15
T:BWV 244.15
T:BWV 244.15
T:J. S. Bach
T:CC0 1.0 Universal (Public Domain). Mark Gotham and FourScoreAndMore.org waive all rights to this document.
C:J. S. Bach
Z:CC0 1.0 Universal (Public Domain). Mark Gotham and FourScoreAndMore.org waive all rights to this document.
%%score [ 1 2 3 4 ]
L:1/8
M:4/4
K:E
V:1 treble nm="Soprano" snm="S."
V:2 treble nm="Alto" snm="A."
V:3 treble-8 nm="Tenor" snm="T."
V:4 bass nm="Bass" snm="B."
V:1
 G2 | c2 B2 A2 G2 | F4 !fermata!G2 d2 | e2 e2 dc d2 | !fermata!c6 G2 | c2 B2 A2 G2 | %6
 F4 !fermata!G2 d2 | e2 e2 dc d2 | !fermata!c6 e2 | dc B2 c2 d2 | e4 !fermata!e2 B2 | c2 B2 A2 A2 | %12
 !fermata!G6 e2 | de f2 e2 d2 | c4 !fermata!d2 G2 | A2 G2 F2 B2 | !fermata!G6 |] %17
V:2
 E2 | E2 E2 EF FE | E2 D2 E2 F2 | EF G2 G2 GF | E6 E2 | E2 E2 EF FE | E2 D2 E2 F2 | EF G2 G2 GF | %8
 E6 cB | A2 GF E2 A2 | A2 GF G2 G2 | A2 G2 G2 F2 | ^E6 F2 | F2 F2 G2 F2 | G2 F2 F2 E2 | %15
 ED E2 E2 D2 | E6 |] %17
V:3
 B2 | A2 B2 cB B2 | c2 B2 B2 ^B2 | G2 c2 c2 ^B2 | c6 B2 | A2 B2 cB B2 | c2 B2 B2 ^B2 | %7
 G2 c2 c2 ^B2 | c6 g2 | fe d2 cB AB | c2 BA B2 e2 | e2 ed c2 c2 | c6 c2 | B2 B^A Bc dB | %14
 Gc ^A2 B2 B2 | =A2 B2 c2 FB | B6 |] %17
V:4
 E,2 | A,2 G,2 C,D, E,2 | A,,2 B,,2 E,2 D,2 | C,D, E,F, G,2 G,,2 | C,6 E,2 | A,2 G,2 C,D, E,2 | %6
 A,,2 B,,2 E,2 D,2 | C,D, E,F, G,2 G,,2 | C,6 C2 | F,2 G,2 A,G, F,2 | E,4 E,2 E,2 | %11
 A,2 E,2 F,G, A,B, | C6 ^A,2 | B,2 D,2 G,^A, B,2 | E,2 F,2 B,,2 E,D, | C,2 B,,2 A,,2 B,,2 | E,6 |] %17

